X:1
T:Title
%%score ( 1 2 ) { 3 | 4 }
L:1/8
Q:1/4=110
M:4/4
K:Ab
V:1 treble nm="Grand Piano, Unnamed-000"
V:2 treble 
V:3 bass nm="Choir Pad, Alford, 76.86 D"
V:4 bass 
V:1
 [Ec]2 [Dd]2- [Dd][Dd] [DA]2 | [DB]2 [Cc]2 [EA]4 | [Ac]2 [Ae]2 [Ac]2 [FA]2 | [GB]2 A6 | %4
w: By~John~Bacchus~Dykes,~1875 * * * *||||
 [Ec]2 [FB]2- [FB][=DB] [Ee]2 | [EB]2 [F=d]2 [Ec]2 [GB]2 | [FA]2 [EG]2- [EG][B,E] [=DA]2 | %7
w: |||
 [B,=D]2 [B,E]6 | E2 [DB]2- [DB][DB] [CA]2 | [FB]2 [Fc]2 [=Ec]4 | [Ec]2 [Dd]2 [DB]2 [Cc]2 | %11
w: ||||
 BA B4- [EB]2 | E2 F2 E2 A2 | [CA]2 [FB]2- [FB][Ec] [Dd]2 | [FB]2 [EA]2- [EA]E [Ac]2 | [GB]2 A6- | %16
w: |||||
 A2 z2 z4 |] %17
w: |
V:2
 x8 | x8 | x8 | x8 | x8 | x8 | x8 | x8 | x8 | x8 | x8 | =D2 D4 z2 | x8 | x8 | x8 | x8 | x8 |] %17
V:3
 A,2 F,2- F,F, F,2 | =E,2 _E,2[K:treble] C4 | A,2 C2 E2 C2 | D2 C6 | C2 =D2- D[K:bass]B, B,2 | %5
 B,2 _C2 =C2 D2 | C2 B,2- B,G, F,2 | A,2 G,6 | E,2 G,2- G,G, A,2 | F,G, A,2 G,4 | %10
 =A,2 B,2 G,2 _A,2 | A,2 A,2 F,2 G,2 | E,2 F,2 E,2 A,2 | A,2 F,2- F,=A, B,2 | %14
 F,2[K:treble] C2- CD E2 | D2 C6- | C2 z2 z4 |] %17
V:4
 A,,2 A,,2- A,,A,, A,,2 | A,,2 A,,2 A,4 | F,2 E,2 E,2 F,2 | E,2 A,6 | A,2 A,2- A,A, G,2 | %5
 G,2 A,2 A,2 =E,2 | F,2 B,,2- B,,B,, B,,2 | B,,2 E,6 | z2 E,2- E,E, F,2 | D,2 C,2 C,4 | %10
 F,2 B,,2 E,2 A,,2 | F,2 B,,4 E,2 | z8 | F,E, D,2- D,C, B,,2 | D,2 E,2- E,E, E,2 | E,2 A,,6- | %16
 A,,2 z2 z4 |] %17

